!! 00000] TT[00
!! NN
!!!OTL: Lan gong diao
!!!ARE: Asia, China, Shanxi Shanbei
!! Ethnic Group: Han
!! I, 65, 2)
!!!SCT: C0019
!!!YEM: Copyright 1995, estate of Helmut Schaffrath.
**kern
*ICvox
*Ivox
*M2/4
*k[b-e-]
*B-:
{8b-
8cc
8ff
8dd
=1
2cc
=2
4ff
8dd
8cc
=3
8b-
8cc
8b-
8g
=4
2f}
=5
{4b-
8cc
8cc
=6
4ff
8dd
8cc
=7
8b-
8cc
8b-
8g
=8
2f}
=9
{8b-
16b-
16b-
8b-
8f
=10
8g
8a
8g
8f
=11
8f
16g
16g
8f
8d
=12
2c}
==
!!!AGN: Xiaodiao. Suku
!! +++BEREITS KODIERT ?+++
!!    Eventuell Pinyin-Text der ersten Strophe vorhanden!
!!!ONB: ESAC (Essen Associative Code) Database: CHINA
!!!AMT: simple duple
!!!AIN: vox
!!!EED: Helmut Schaffrath
!!!EEV: 1.0
*-
